resources/images/wetland.svg

<?xml version="1.0" encoding="UTF-8" standalone="no" ?>
<!DOCTYPE svg PUBLIC "-//W3C//DTD SVG 1.1//EN" "http://www.w3.org/Graphics/SVG/1.1/DTD/svg11.dtd">
<svg xmlns="http://www.w3.org/2000/svg" xmlns:xlink="http://www.w3.org/1999/xlink" version="1.1" width="1080" height="1080" viewBox="0 0 1080 1080" xml:space="preserve">
<desc>Created with Fabric.js 5.2.4</desc>
<defs>
</defs>
<rect x="0" y="0" width="100%" height="100%" fill="transparent"></rect>
<g transform="matrix(1 0 0 1 540 540)" id="9de24dbc-cae5-4dde-92e9-318c6f0617b6"  >
<rect style="stroke: none; stroke-width: 1; stroke-dasharray: none; stroke-linecap: butt; stroke-dashoffset: 0; stroke-linejoin: miter; stroke-miterlimit: 4; fill: rgb(255,255,255); fill-rule: nonzero; opacity: 1; visibility: hidden;" vector-effect="non-scaling-stroke"  x="-540" y="-540" rx="0" ry="0" width="1080" height="1080" />
</g>
<g transform="matrix(1 0 0 1 540 540)" id="306fc666-b2d7-41a8-82dc-ec6891540ac5"  >
</g>
<g transform="matrix(1 0 0 1 574.99 559.63)" id="5b2b6440-7ec4-4fb0-8136-76f31513e7ca"  >
<path style="stroke: rgb(0,0,0); stroke-width: 2; stroke-dasharray: none; stroke-linecap: butt; stroke-dashoffset: 0; stroke-linejoin: miter; stroke-miterlimit: 4; fill: rgb(10,81,246); fill-rule: nonzero; opacity: 1;" vector-effect="non-scaling-stroke"  transform=" translate(-288, -256)" d="M 269.5 69.9 C 280.6 62.00000000000001 295.4 62.00000000000001 306.5 69.9 C 329 85.4 356.5 96 384 96 C 410.9 96 439.4 85.2 461.4 69.9 L 461.4 69.9 C 473.29999999999995 61.400000000000006 489.5 62.10000000000001 500.59999999999997 71.60000000000001 C 515 83.50000000000001 533.0999999999999 92.60000000000001 551.1999999999999 96.80000000000001 C 568.4 100.80000000000001 579.0999999999999 118.00000000000001 575.0999999999999 135.20000000000002 C 571.0999999999999 152.40000000000003 553.8999999999999 163.10000000000002 536.6999999999999 159.10000000000002 C 512.1999999999999 153.40000000000003 491.79999999999995 142.60000000000002 478.49999999999994 134.10000000000002 C 449.5 149.7 417 160 384 160 C 352.1 160 323.4 150.1 303.6 141.1 C 297.8 138.4 292.5 135.79999999999998 288 133.4 C 283.5 135.8 278.3 138.5 272.4 141.1 C 252.59999999999997 150.1 223.89999999999998 160 191.99999999999997 160 C 158.99999999999997 160 126.49999999999997 149.7 97.49999999999997 134.2 C 84.09999999999997 142.6 63.79999999999997 153.5 39.29999999999997 159.2 C 22.09999999999997 163.2 4.89999999999997 152.5 0.8999999999999702 135.29999999999998 C -3.10000000000003 118.09999999999997 7.59999999999997 100.89999999999998 24.79999999999997 96.89999999999998 C 42.8 92.6 61 83.5 75.3 71.6 C 86.39999999999999 62.099999999999994 102.6 61.49999999999999 114.5 69.89999999999999 L 114.5 69.89999999999999 C 136.7 85.2 165.1 96 192 96 C 219.5 96 247 85.4 269.5 69.9 z M 306.5 357.9 C 329 373.4 356.5 384 384 384 C 410.9 384 439.4 373.2 461.4 357.9 L 461.4 357.9 C 473.29999999999995 349.4 489.5 350.09999999999997 500.59999999999997 359.59999999999997 C 515 371.49999999999994 533.0999999999999 380.59999999999997 551.1999999999999 384.79999999999995 C 568.4 388.79999999999995 579.0999999999999 405.99999999999994 575.0999999999999 423.19999999999993 C 571.0999999999999 440.3999999999999 553.8999999999999 451.0999999999999 536.6999999999999 447.0999999999999 C 512.1999999999999 441.3999999999999 491.79999999999995 430.5999999999999 478.49999999999994 422.0999999999999 C 449.5 437.7 417 448 384 448 C 352.1 448 323.4 438.1 303.6 429.1 C 297.8 426.40000000000003 292.5 423.8 288 421.40000000000003 C 283.5 423.8 278.3 426.50000000000006 272.4 429.1 C 252.59999999999997 438.1 223.89999999999998 448 191.99999999999997 448 C 158.99999999999997 448 126.49999999999997 437.7 97.49999999999997 422.2 C 84.09999999999997 430.59999999999997 63.79999999999997 441.5 39.29999999999997 447.2 C 22.09999999999997 451.2 4.89999999999997 440.5 0.8999999999999702 423.3 C -3.10000000000003 406.1 7.59999999999997 388.90000000000003 24.79999999999997 384.90000000000003 C 42.89999999999997 380.70000000000005 60.99999999999997 371.6 75.39999999999998 359.70000000000005 C 86.49999999999997 350.30000000000007 102.69999999999997 349.6 114.59999999999998 358.00000000000006 L 114.59999999999998 358.00000000000006 C 136.7 373.2 165.1 384 192 384 C 219.5 384 247 373.4 269.5 357.9 C 280.6 350 295.4 350 306.5 357.9 z M 306.5 213.89999999999998 C 329 229.4 356.5 240 384 240 C 410.9 240 439.4 229.2 461.4 213.9 L 461.4 213.9 C 473.29999999999995 205.4 489.5 206.1 500.59999999999997 215.6 C 515 227.5 533.0999999999999 236.6 551.1999999999999 240.79999999999998 C 568.4 244.79999999999998 579.0999999999999 262 575.0999999999999 279.2 C 571.0999999999999 296.4 553.8999999999999 307.09999999999997 536.6999999999999 303.09999999999997 C 512.1999999999999 297.4 491.79999999999995 286.59999999999997 478.49999999999994 278.09999999999997 C 449.5 293.7 417 304 384 304 C 352.1 304 323.4 294.1 303.6 285.1 C 297.8 282.40000000000003 292.5 279.8 288 277.40000000000003 C 283.5 279.8 278.3 282.50000000000006 272.4 285.1 C 252.59999999999997 294.1 223.89999999999998 304 191.99999999999997 304 C 158.99999999999997 304 126.49999999999997 293.7 97.49999999999997 278.2 C 84.09999999999997 286.59999999999997 63.79999999999997 297.5 39.29999999999997 303.2 C 22.09999999999997 307.2 4.89999999999997 296.5 0.8999999999999702 279.3 C -3.10000000000003 262.1 7.59999999999997 244.9 24.79999999999997 240.9 C 42.89999999999997 236.70000000000002 60.99999999999997 227.6 75.39999999999998 215.70000000000002 C 86.49999999999997 206.20000000000002 102.69999999999997 205.60000000000002 114.59999999999998 214.00000000000003 L 114.59999999999998 214.00000000000003 C 136.7 229.2 165.1 240 192 240 C 219.5 240 247 229.4 269.5 213.9 C 280.6 206 295.4 206 306.5 213.9 z" stroke-linecap="round" />
</g>
</svg>

<svg xmlns="http://www.w3.org/2000/svg" viewBox="0 0 576 512"><!--! Font Awesome Pro 6.4.0 by @fontawesome - https://fontawesome.com License - https://fontawesome.com/license (Commercial License) Copyright 2023 Fonticons, Inc. --><path d="M269.5 69.9c11.1-7.9 25.9-7.9 37 0C329 85.4 356.5 96 384 96c26.9 0 55.4-10.8 77.4-26.1l0 0c11.9-8.5 28.1-7.8 39.2 1.7c14.4 11.9 32.5 21 50.6 25.2c17.2 4 27.9 21.2 23.9 38.4s-21.2 27.9-38.4 23.9c-24.5-5.7-44.9-16.5-58.2-25C449.5 149.7 417 160 384 160c-31.9 0-60.6-9.9-80.4-18.9c-5.8-2.7-11.1-5.3-15.6-7.7c-4.5 2.4-9.7 5.1-15.6 7.7c-19.8 9-48.5 18.9-80.4 18.9c-33 0-65.5-10.3-94.5-25.8c-13.4 8.4-33.7 19.3-58.2 25c-17.2 4-34.4-6.7-38.4-23.9s6.7-34.4 23.9-38.4C42.8 92.6 61 83.5 75.3 71.6c11.1-9.5 27.3-10.1 39.2-1.7l0 0C136.7 85.2 165.1 96 192 96c27.5 0 55-10.6 77.5-26.1zm37 288C329 373.4 356.5 384 384 384c26.9 0 55.4-10.8 77.4-26.1l0 0c11.9-8.5 28.1-7.8 39.2 1.7c14.4 11.9 32.5 21 50.6 25.2c17.2 4 27.9 21.2 23.9 38.4s-21.2 27.9-38.4 23.9c-24.5-5.7-44.9-16.5-58.2-25C449.5 437.7 417 448 384 448c-31.9 0-60.6-9.9-80.4-18.9c-5.8-2.7-11.1-5.3-15.6-7.7c-4.5 2.4-9.7 5.1-15.6 7.7c-19.8 9-48.5 18.9-80.4 18.9c-33 0-65.5-10.3-94.5-25.8c-13.4 8.4-33.7 19.3-58.2 25c-17.2 4-34.4-6.7-38.4-23.9s6.7-34.4 23.9-38.4c18.1-4.2 36.2-13.3 50.6-25.2c11.1-9.4 27.3-10.1 39.2-1.7l0 0C136.7 373.2 165.1 384 192 384c27.5 0 55-10.6 77.5-26.1c11.1-7.9 25.9-7.9 37 0zm0-144C329 229.4 356.5 240 384 240c26.9 0 55.4-10.8 77.4-26.1l0 0c11.9-8.5 28.1-7.8 39.2 1.7c14.4 11.9 32.5 21 50.6 25.2c17.2 4 27.9 21.2 23.9 38.4s-21.2 27.9-38.4 23.9c-24.5-5.7-44.9-16.5-58.2-25C449.5 293.7 417 304 384 304c-31.9 0-60.6-9.9-80.4-18.9c-5.8-2.7-11.1-5.3-15.6-7.7c-4.5 2.4-9.7 5.1-15.6 7.7c-19.8 9-48.5 18.9-80.4 18.9c-33 0-65.5-10.3-94.5-25.8c-13.4 8.4-33.7 19.3-58.2 25c-17.2 4-34.4-6.7-38.4-23.9s6.7-34.4 23.9-38.4c18.1-4.2 36.2-13.3 50.6-25.2c11.1-9.5 27.3-10.1 39.2-1.7l0 0C136.7 229.2 165.1 240 192 240c27.5 0 55-10.6 77.5-26.1c11.1-7.9 25.9-7.9 37 0z"/></svg>
